src/assets/wolves/org-ads/gnome.svg

<?xml version="1.0" encoding="UTF-8"?>
<svg height="570.42" viewBox="0,0,74.2468,143.474" width="464.09" xmlns="http://www.w3.org/2000/svg">
 <metadata/>
 <g fill="#020202" transform="matrix(1.18866 0 0 1.19506 -20.12 1.25)">
  <path d="m86.068 0c-24.602 0-29.217 35.041-15.377 35.041 13.838 0 39.98-35.041 15.377-35.041z"/>
  <path d="m45.217 30.699c7.369.45 15.454-28.122 1.604-26.325-13.845 1.797-8.976 25.875-1.604 26.325z"/>
  <path d="m11.445 48.453c5.241-2.307.675-24.872-8.237-18.718-8.908 6.155 2.996 21.024 8.237 18.718z"/>
  <path d="m26.212 36.642c6.239-1.272 6.581-26.864-4.545-22.273-11.128 4.592-1.689 23.547 4.545 22.273z"/>
  <path d="m58.791 93.913c1.107 8.454-6.202 12.629-13.36 7.179-22.787-17.349 37.729-26.004 33.74-49.706-3.311-19.674-63.676-13.617-70.55 17.167-4.653 20.821 19.153 49.707 43.993 49.707 12.22 0 26.315-11.034 28.952-25.012 2.014-10.659-23.699-6.388-22.775.665z"/>
 </g>
</svg>

<?xml version="1.0" encoding="UTF-8" standalone="no"?>
<svg
   id="svg8"
   version="1.1"
   viewBox="0 0 300 300"
   height="300"
   width="300"
   xmlns="http://www.w3.org/2000/svg"
   xmlns:svg="http://www.w3.org/2000/svg"
   xmlns:rdf="http://www.w3.org/1999/02/22-rdf-syntax-ns#"
   xmlns:cc="http://creativecommons.org/ns#"
   xmlns:dc="http://purl.org/dc/elements/1.1/">
  <defs
     id="defs2" />
  <metadata
     id="metadata5">
    <rdf:RDF>
      <cc:Work
         rdf:about="">
        <dc:format>image/svg+xml</dc:format>
        <dc:type
           rdf:resource="http://purl.org/dc/dcmitype/StillImage" />
        <cc:license
           rdf:resource="http://creativecommons.org/licenses/by-sa/4.0/" />
      </cc:Work>
      <cc:License
         rdf:about="http://creativecommons.org/licenses/by-sa/4.0/">
        <cc:permits
           rdf:resource="http://creativecommons.org/ns#Reproduction" />
        <cc:permits
           rdf:resource="http://creativecommons.org/ns#Distribution" />
        <cc:requires
           rdf:resource="http://creativecommons.org/ns#Notice" />
        <cc:requires
           rdf:resource="http://creativecommons.org/ns#Attribution" />
        <cc:permits
           rdf:resource="http://creativecommons.org/ns#DerivativeWorks" />
        <cc:requires
           rdf:resource="http://creativecommons.org/ns#ShareAlike" />
      </cc:License>
    </rdf:RDF>
  </metadata>
  <g
     id="layer1"
     transform="translate(-2550)">
    <rect
       style="fill:#241f31;fill-opacity:1;stroke:none;stroke-width:15;stroke-linecap:round;stroke-linejoin:round;stop-color:#000000"
       id="rect2007"
       width="300"
       height="300"
       x="2550"
       y="0" />
    <g
       transform="matrix(0.4436889,0,0,0.4436889,2965.7337,-7.469143)"
       id="g2041"
       style="fill:#ffffff;stroke-width:2.25383"
       class="logofill">
      <g
         transform="matrix(3.6654483,0,0,3.6654483,-775.24519,138.17095)"
         style="fill:#ffffff;fill-opacity:1;fill-rule:nonzero;stroke:none;stroke-width:1.79233;stroke-miterlimit:4"
         id="g2021">
        <g
           style="fill:#ffffff;fill-opacity:1;stroke-width:1.79233"
           id="g2019">
          <path
             d="M 86.068,0 C 61.466,0 56.851,35.041 70.691,35.041 84.529,35.041 110.671,0 86.068,0 Z"
             style="fill:#ffffff;fill-opacity:1;stroke-width:1.79233"
             id="path2009" />
          <path
             d="M 45.217,30.699 C 52.586,31.149 60.671,2.577 46.821,4.374 32.976,6.171 37.845,30.249 45.217,30.699 Z"
             style="fill:#ffffff;fill-opacity:1;stroke-width:1.79233"
             id="path2011" />
          <path
             d="M 11.445,48.453 C 16.686,46.146 12.12,23.581 3.208,29.735 -5.7,35.89 6.204,50.759 11.445,48.453 Z"
             style="fill:#ffffff;fill-opacity:1;stroke-width:1.79233"
             id="path2013" />
          <path
             d="M 26.212,36.642 C 32.451,35.37 32.793,9.778 21.667,14.369 10.539,18.961 19.978,37.916 26.212,36.642 Z"
             style="fill:#ffffff;fill-opacity:1;stroke-width:1.79233"
             id="path2015" />
          <path
             d="m 58.791,93.913 c 1.107,8.454 -6.202,12.629 -13.36,7.179 C 22.644,83.743 83.16,75.088 79.171,51.386 75.86,31.712 15.495,37.769 8.621,68.553 3.968,89.374 27.774,118.26 52.614,118.26 c 12.22,0 26.315,-11.034 28.952,-25.012 C 83.58,82.589 57.867,86.86 58.791,93.913 Z"
             style="fill:#ffffff;fill-opacity:1;stroke-width:1.79233"
             id="path2017" />
        </g>
      </g>
      <g
         transform="matrix(3.6654483,0,0,3.6654483,-1473.9329,138.17095)"
         style="fill:#241f31;fill-opacity:1;fill-rule:nonzero;stroke:none;stroke-width:1.79233;stroke-miterlimit:4"
         id="g2055">
        <g
           style="fill:#241f31;fill-opacity:1;stroke-width:1.79233"
           id="g2053">
          <path
             d="M 86.068,0 C 61.466,0 56.851,35.041 70.691,35.041 84.529,35.041 110.671,0 86.068,0 Z"
             style="fill:#241f31;fill-opacity:1;stroke-width:1.79233"
             id="path2043" />
          <path
             d="M 45.217,30.699 C 52.586,31.149 60.671,2.577 46.821,4.374 32.976,6.171 37.845,30.249 45.217,30.699 Z"
             style="fill:#241f31;fill-opacity:1;stroke-width:1.79233"
             id="path2045" />
          <path
             d="M 11.445,48.453 C 16.686,46.146 12.12,23.581 3.208,29.735 -5.7,35.89 6.204,50.759 11.445,48.453 Z"
             style="fill:#241f31;fill-opacity:1;stroke-width:1.79233"
             id="path2047" />
          <path
             d="M 26.212,36.642 C 32.451,35.37 32.793,9.778 21.667,14.369 10.539,18.961 19.978,37.916 26.212,36.642 Z"
             style="fill:#241f31;fill-opacity:1;stroke-width:1.79233"
             id="path2049" />
          <path
             d="m 58.791,93.913 c 1.107,8.454 -6.202,12.629 -13.36,7.179 C 22.644,83.743 83.16,75.088 79.171,51.386 75.86,31.712 15.495,37.769 8.621,68.553 3.968,89.374 27.774,118.26 52.614,118.26 c 12.22,0 26.315,-11.034 28.952,-25.012 C 83.58,82.589 57.867,86.86 58.791,93.913 Z"
             style="fill:#241f31;fill-opacity:1;stroke-width:1.79233"
             id="path2051" />
        </g>
      </g>
    </g>
  </g>
</svg>
